svg/heart-dislike-circle.svg

<?xml version="1.0" encoding="UTF-8" standalone="no"?>
<svg
   xmlns:dc="http://purl.org/dc/elements/1.1/"
   xmlns:cc="http://creativecommons.org/ns#"
   xmlns:rdf="http://www.w3.org/1999/02/22-rdf-syntax-ns#"
   xmlns:svg="http://www.w3.org/2000/svg"
   xmlns="http://www.w3.org/2000/svg"
   xmlns:sodipodi="http://sodipodi.sourceforge.net/DTD/sodipodi-0.dtd"
   xmlns:inkscape="http://www.inkscape.org/namespaces/inkscape"
   class="ionicon"
   viewBox="0 0 512 512"
   version="1.1"
   id="svg6"
   sodipodi:docname="heart-dislike-circle.svg"
   inkscape:version="1.0.2 (e86c8708, 2021-01-15)">
  <metadata
     id="metadata12">
    <rdf:RDF>
      <cc:Work
         rdf:about="">
        <dc:format>image/svg+xml</dc:format>
        <dc:type
           rdf:resource="http://purl.org/dc/dcmitype/StillImage" />
      </cc:Work>
    </rdf:RDF>
  </metadata>
  <defs
     id="defs10" />
  <sodipodi:namedview
     pagecolor="#ffffff"
     bordercolor="#666666"
     borderopacity="1"
     objecttolerance="10"
     gridtolerance="10"
     guidetolerance="10"
     inkscape:pageopacity="0"
     inkscape:pageshadow="2"
     inkscape:window-width="689"
     inkscape:window-height="480"
     id="namedview8"
     showgrid="false"
     inkscape:zoom="1.3027344"
     inkscape:cx="256"
     inkscape:cy="256"
     inkscape:window-x="44"
     inkscape:window-y="25"
     inkscape:window-maximized="0"
     inkscape:current-layer="svg6" />
  <title
     id="title2">Heart Dislike Circle</title>
  <path
     style="color:#000000;font-style:normal;font-variant:normal;font-weight:normal;font-stretch:normal;font-size:medium;line-height:normal;font-family:sans-serif;font-variant-ligatures:normal;font-variant-position:normal;font-variant-caps:normal;font-variant-numeric:normal;font-variant-alternates:normal;font-variant-east-asian:normal;font-feature-settings:normal;font-variation-settings:normal;text-indent:0;text-align:start;text-decoration:none;text-decoration-line:none;text-decoration-style:solid;text-decoration-color:#000000;letter-spacing:normal;word-spacing:normal;text-transform:none;writing-mode:lr-tb;direction:ltr;text-orientation:mixed;dominant-baseline:auto;baseline-shift:baseline;text-anchor:start;white-space:normal;shape-padding:0;shape-margin:0;inline-size:0;clip-rule:nonzero;display:inline;overflow:visible;visibility:visible;isolation:auto;mix-blend-mode:normal;color-interpolation:sRGB;color-interpolation-filters:linearRGB;solid-color:#000000;solid-opacity:1;vector-effect:none;fill:#000000;fill-opacity:1;fill-rule:nonzero;stroke-width:1;stroke-linecap:butt;stroke-linejoin:miter;stroke-miterlimit:4;stroke-dasharray:none;stroke-dashoffset:0;stroke-opacity:1;color-rendering:auto;image-rendering:auto;shape-rendering:auto;text-rendering:auto;enable-background:accumulate;stop-color:#000000;stop-opacity:1;stroke:none;opacity:1"
     d="M 256,48 C 141.31,48 48,141.31 48,256 48,370.69 141.31,464 256,464 370.69,464 464,370.69 464,256 464,141.31 370.69,48 256,48 Z m 23.3,299.19 c -4.41,3.2 -9.16,6.55 -14.31,10 -5.42505,3.71466 -12.57495,3.71466 -18,0 -39.3,-26.68 -56.32,-45 -65.7,-56.41 -20,-24.37 -29.58,-49.4 -29.3,-76.5 v -0.64 c 0.10089,-3.50233 4.33654,-5.19162 6.82,-2.72 l 120.95,120.2 c 1.74683,1.73394 1.52818,4.61911 -0.46,6.07 z m 68,16.12 c -6.24754,6.24345 -16.37246,6.24345 -22.62,0 l -176,-176 c -5.97647,-6.29063 -5.84961,-16.19849 0.28595,-22.33405 6.13556,-6.13556 16.04342,-6.26242 22.33405,-0.28595 l 176,176 c 6.24621,6.24478 6.25068,16.3697 0.01,22.62 z m -14.1,-65.62 c -1.44866,1.96438 -4.32096,2.14151 -6,0.37 l -124,-123.21 c -2.54732,-2.5086 -0.77517,-6.84403 2.8,-6.85 h 1.55 c 20.4,0 35,10.64 44.11,20.42 2.34685,2.53309 6.35315,2.53309 8.7,0 9.11,-9.78 23.71,-20.42 44.11,-20.42 30.31,0 55.22,25.27 55.53,56.33 0.26,25.93 -8.52,49.97 -26.8,73.36 z"
     id="path4" />
</svg>

<svg xmlns="http://www.w3.org/2000/svg" width="512" height="512" viewBox="0 0 512 512"><title>ionicons-v5-f</title><path d="M256,48C141.31,48,48,141.31,48,256s93.31,208,208,208,208-93.31,208-208S370.69,48,256,48Zm23.3,299.19c-4.41,3.2-9.16,6.55-14.31,10a15.93,15.93,0,0,1-18,0c-39.3-26.68-56.32-45-65.7-56.41-20-24.37-29.58-49.4-29.3-76.5,0-.21,0-.43,0-.64a4,4,0,0,1,6.82-2.72L279.76,341.12A4,4,0,0,1,279.3,347.19Zm68,16.12a16,16,0,0,1-22.62,0l-176-176a16,16,0,0,1,22.62-22.62l176,176A16,16,0,0,1,347.31,363.31ZM333.2,297.69a3.92,3.92,0,0,1-6,.37l-124-123.21A4,4,0,0,1,206,168l1.55,0c20.4,0,35,10.64,44.11,20.42a5.93,5.93,0,0,0,8.7,0c9.11-9.78,23.71-20.42,44.11-20.42,30.31,0,55.22,25.27,55.53,56.33C360.26,250.26,351.48,274.3,333.2,297.69Z"/></svg>
